!!!COM:	de Orto, Marbrianus
!!!CDT:	~1460///-1529//
!!!OTL:	D'ung aultre amer
!!!AGN:	Song; Chanson
!!!SCT:	Ort3001
!!!SCA:	Ort3001
!!!voices:	4
**kern	**kern	**kern	**kern
*staff4	*staff3	*staff2	*staff1
*Ivox	*Ivox	*Ivox	*Ivox
*I"Bassus	*I"Tenor	*I"Altus	*I"Discantus
*I'B	*I'T	*I'A	*I'D
*clefF4	*clefGv2	*clefGv2	*clefG2
*k[b-]	*k[b-]	*k[b-]	*k[b-]
*M2/1	*M2/1	*M2/1	*M2/1
*met(C|)	*met(C|)	*met(C|)	*met(C|)
=1-	=1-	=1-	=1-
!	!	!	!LO:TX:X=-40:Z=8:t=Discantus = Ockeghem's superius
!	!	!LO:TX:X=-40:Z=14:t=Obelus quinis sedibus ipse volat ("the obelus flies in five seats")	!
!!footnote:The altus and bassus lines are punctuated by a series of repeat signs: after each, the singer is to repeat the last section of music at the upper fifth. These occur after mm. 2, 5, 7, 9, 11.5, 13.5, 16, 19, 20.5, and 22.
1C	1G	2r	0g
.	.	2c\	.
1GG	[1d	2B-\	.
.	.	4A/	.
.	.	4G/	.
=2	=2	=2	=2
!!LO:TX:X=40:Z=48:t=In Petrucci, both A and B are punctuated by a series of vertical
!!LO:TX:X=40:Z=28:t=lines (after mm. 2, 5, 7, 9, 11.5, 13.5, 16, 19, 20.5, and 22).  In each
!!LO:TX:X=40:Z=8:t=case the singer is to repeat the previous section at the upper fifth. 
1D	2d\]	1F	1a
.	2c\	.	.
1GG	[1B-	1G	1g
=3	=3	=3	=3
1G	2B-\]	2r	1.dd
.	4A/	2g\	.
.	4G/	.	.
1D	1A	2f\	.
.	.	4e\	4cc\
.	.	4d\	4b-\
=4	=4	=4	=4
1A	1r	1c	1a
1D	2.F/	1d	1a
.	4D/	.	.
=5	=5	=5	=5
2.D\	4F/	2r	1a
.	4G/	.	.
.	2A/	2.d\	.
4C/	.	.	.
4BB-/	2B-\	.	[1dd
4AA/	.	4c\	.
2GG/	[2d\	4B-\	.
.	.	4A/	.
=6	=6	=6	=6
2BB-/	2d\]	2G/	1dd]
2GG/	4c\	1G	.
.	4B-\	.	.
1r	1A	.	1cc
.	.	2F#i/	.
=7	=7	=7	=7
0r	1.G	1G	2b-\
.	.	.	1b-
.	.	1r	.
.	4F/	.	4a/
.	4E/	.	4g/
=8	=8	=8	=8
2.A\	1D	2r	0f
.	.	2.a\	.
4G\	.	.	.
4F\	2r	.	.
4E\	.	4g\	.
2D\	[2A/	4f\	.
.	.	4e\	.
=9	=9	=9	=9
2F\	2A/]	2d\	1r
2D\	2B-\	1d	.
1r	1A	.	1f
.	.	2c\	.
=10	=10	=10	=10
0r	1G	1d	1g
.	1G	1r	1b-
=11	=11	=11	=11
0D	0F#	1A	0a
.	.	1d	.
=12	=12	=12	=12
0GG	0G	2.B-\	1.g
.	.	4c\	.
.	.	1d	.
.	.	.	2f/
=13	=13	=13	=13
0A	1C	1e	2e/
.	.	.	2d/
.	1D	1a	[1d
=14	=14	=14	=14
0D	1.A	2.f\	0d]
.	.	4g\	.
.	.	1a	.
.	4G/	.	.
.	4F/	.	.
=15	=15	=15	=15
0GG	1B-	2r	1d
.	.	2.G/	.
.	1G	.	[1e
.	.	4F/	.
.	.	4E/	.
.	.	4D/	.
=16	=16	=16	=16
0AA	0c	1C	2e/]
.	.	.	2d/
.	.	1C	1e
=17	=17	=17	=17
0D	0A	2r	1f
.	.	2.d\	.
.	.	.	[1d
.	.	4c\	.
.	.	4B-\	.
.	.	4A/	.
=18	=18	=18	=18
0E	0r	1G	1d]
.	.	1G	1c#i
=19	=19	=19	=19
1D	1F#	2r	[0d
.	.	1B-	.
[1G	2G/	.	.
.	[2B-\	2G/	.
=20	=20	=20	=20
2G\]	4B-\]	1G	0d]
.	4c\	.	.
4F\	4d\	.	.
4E\	4e\	.	.
1D	1f	1A	.
=21	=21	=21	=21
1D	1d	1A	0r
1A	1c	2r	.
.	.	[2f\	.
=22	=22	=22	=22
1.d	1B-	2f\]	0b-
.	.	2d\	.
.	1r	1d	.
4c\	.	.	.
4B-\	.	.	.
=23	=23	=23	=23
1A	1r	1e	1cc
1A	2r	1e	1cc
.	2A/	.	.
=24	=24	=24	=24
1.D	2B-\	2r	0dd
.	2A/	1d	.
.	2F/	.	.
2E\	2G/	4c\	.
.	.	4B-\	.
=25	=25	=25	=25
1F	1D	1A	1dd
1G	1r	1d	1dd
=26	=26	=26	=26
1.A	1F	2r	2cc\
.	.	1a	1cc
.	1F	.	.
2B-\	.	4g\	4b-\
.	.	4f\	4a/
=27	=27	=27	=27
1c	2C/	1e	1g
.	2E/	.	.
1d	1D	1a	[1f
=28	=28	=28	=28
1D	2r	1A	2f/]
.	2F/	.	4e/
.	.	.	4d/
1E-	2.G/	[1G	1c
.	4A/	.	.
=29	=29	=29	=29
1r	2.B-\	1G]	1.d
.	4c\	.	.
[1BB-	4d\	[1F	.
.	4e\	.	.
.	[2f\	.	2B-/
=30	=30	=30	=30
1BB-]	2f\]	1F]	1B-
.	2d\	.	.
1A	1c	1e	1c
=31	=31	=31	=31
1B-	[0f	0d	1B-
1r	.	.	[1b-
=32	=32	=32	=32
0F	0f]	0c	2b-\]
.	.	.	4a/
.	.	.	4g/
.	.	.	1a
=33	=33	=33	=33
0BB-	0d	2r	0b-
.	.	2.B-\	.
.	.	4A/	.
.	.	[2F/	.
=34	=34	=34	=34
0AA	0c	4F/]	0r
.	.	4G/	.
.	.	2.A/	.
.	.	4B-\	.
.	.	2c\	.
=35	=35	=35	=35
0BB-	1B-	1F	0b-
.	1d	1B-	.
=36	=36	=36	=36
0F	0c	2r	1a
.	.	2.f\	.
.	.	.	1a
.	.	4e\	.
.	.	[2c\	.
=37	=37	=37	=37
0E	1r	4c\]	2g/
.	.	4d\	.
.	.	2.e\	1cc
.	1G	.	.
.	.	4f\	.
.	.	2g\	2b-\
=38	=38	=38	=38
0F	2A/	1c	2a/
.	2B-\	.	2g/
.	1c	1f	1a
=39	=39	=39	=39
1BB-	1B-	2r	1b-
.	.	2d\	.
1C	1r	2c\	1g
.	.	2A/	.
=40	=40	=40	=40
1BB-	1f	2B-\	1dd
.	.	2F/	.
1F	1f	2r	2cc\
.	.	2a\	[2cc\
=41	=41	=41	=41
1G	2r	2g\	2cc\]
.	2B-\	2e\	2b-\
1F	2.c\	2f\	2a/
.	.	2c\	2g/
.	8B-/L	.	.
.	8A/J	.	.
=42	=42	=42	=42
2G\	2G/	2r	1b-
2D\	2F/	2d\	.
2E-\	2G/	2B-\	2g/
2C/	2E/	4c\	[2a/
.	.	4B-\	.
=43	=43	=43	=43
1D	2F/	4A/	4a/]
.	.	4G/	4g/
.	1D	2F/	4f/
.	.	.	4e/
2d\	.	2r	2f/
2A\	2C/	2a\	2e/
=44	=44	=44	=44
2B-\	2BB-/	2f\	2d/
2G\	2r	4g\	1g
.	.	4f\	.
1A	1r	4e\	.
.	.	4d\	.
.	.	2c\	2f#i/
=45	=45	=45	=45
0Gl	0GGl	0dl	0gl
==	==	==	==
*-	*-	*-	*-
!!!RDF**kern: l=long note in original notation
!!!RDF**kern: i=editorial accidental
!!!ENC:	Jesse Rodin 8/6/2013
!!!END:	2013/08/06/
!!!EED:	Jesse Rodin
!!!EEV:	2013/08/06/
!!!ONB:	Translated from MusicXML and edited on 2013/08/06/ by Craig Sapp
!!muse2ps: C^@{COM}^i2I150v85,85,85,150Q16
